src/lib/packages/icons/src/assets/line/facebook-messenger.svg

<svg width="24" height="24" viewBox="0 0 24 24" fill="none" xmlns="http://www.w3.org/2000/svg">
<path d="M12 2.24998C6.44 2.24998 2.25 6.32998 2.25 11.73C2.25 14.48 3.34001 16.97 5.32001 18.72L5.37 20.32C5.4 21.11 6.05 21.74 6.84 21.74C6.85 21.74 6.87 21.74 6.88 21.74C7.07 21.74 7.24999 21.69 7.42999 21.62L9.20001 20.83C10.1 21.08 11.05 21.2 12 21.2C17.56 21.2 21.75 17.12 21.75 11.72C21.75 6.31999 17.56 2.23999 12 2.23999V2.24998ZM12 19.71C11.18 19.71 10.37 19.6 9.59 19.39C9.26 19.3 8.90999 19.33 8.60999 19.47L6.87 20.28L6.82001 18.69C6.82001 18.29 6.62999 17.9 6.32999 17.63C4.66999 16.14 3.75 14.05 3.75 11.73C3.75 7.17998 7.3 3.74998 12 3.74998C16.7 3.74998 20.25 7.17998 20.25 11.73C20.25 16.28 16.7 19.71 12 19.71ZM17.43 9.66998L14.77 13.94C14.37 14.58 13.53 14.78 12.9 14.37C12.87 14.35 12.84 14.33 12.81 14.31L10.7 12.7C10.51 12.55 10.24 12.55 10.05 12.7L7.20001 14.9C6.82001 15.19 6.31999 14.73 6.57999 14.32L9.23999 10.04C9.63999 9.39998 10.48 9.19999 11.11 9.60999C11.14 9.62999 11.17 9.64998 11.2 9.66998L13.31 11.28C13.5 11.43 13.77 11.43 13.96 11.28L16.81 9.07999C17.19 8.78999 17.69 9.24999 17.43 9.65999V9.66998Z" fill="currentColor"/>
</svg>

<svg xmlns="http://www.w3.org/2000/svg" width="24" height="24" fill="none"><path fill="currentColor" d="M12 2.25c-5.56 0-9.75 4.08-9.75 9.48 0 2.75 1.09 5.24 3.07 6.99l.05 1.6c.03.79.68 1.42 1.47 1.42h.04c.19 0 .37-.05.55-.12l1.77-.79c.9.25 1.85.37 2.8.37 5.56 0 9.75-4.08 9.75-9.48S17.56 2.24 12 2.24v.01Zm0 17.46c-.82 0-1.63-.11-2.41-.32-.33-.09-.68-.06-.98.08l-1.74.81-.05-1.59c0-.4-.19-.79-.49-1.06-1.66-1.49-2.58-3.58-2.58-5.9 0-4.55 3.55-7.98 8.25-7.98s8.25 3.43 8.25 7.98c0 4.55-3.55 7.98-8.25 7.98Zm5.43-10.04-2.66 4.27c-.4.64-1.24.84-1.87.43l-.09-.06-2.11-1.61a.526.526 0 0 0-.65 0L7.2 14.9c-.38.29-.88-.17-.62-.58l2.66-4.28c.4-.64 1.24-.84 1.87-.43l.09.06 2.11 1.61c.19.15.46.15.65 0l2.85-2.2c.38-.29.88.17.62.58v.01Z"/></svg>
